X: 35026
T: Rollicking Boys Of Tandragee, The
R: jig
M: 6/8
K: Eminor
|:BAB E2B|BAB d2A|BAF D2E|FED EFA|
BAB E2B|BAB def|edB AFA|BEE E3:|
|:A|Bde f2e|def afe|f2e dBA|B2^c dBA|
Bde f2e|def afe|fdB AFA|BEE E2:|

